Sources/FrostedUI/Resources/Icons.xcassets/cameraFilled32.imageset/camera-filled-32.svg

<svg width="32" height="32" viewBox="0 0 32 32" fill="none" xmlns="http://www.w3.org/2000/svg" data-fui-icon="true">
  <path
    d="M20.0439 2.25C21.5096 2.25009 22.8931 2.92702 23.793 4.08398L25.3018 6.02344C25.6585 6.48186 26.2072 6.75 26.7881 6.75C29.5284 6.75025 31.7498 8.97163 31.75 11.7119V24.7002C31.7499 27.7652 29.2652 30.2499 26.2002 30.25H5.7998C2.73478 30.2499 0.250106 27.7652 0.25 24.7002V11.7119C0.250247 8.97163 2.47163 6.75025 5.21191 6.75C5.79278 6.75 6.34154 6.48186 6.69824 6.02344L8.20703 4.08398C9.10689 2.92702 10.4904 2.25009 11.9561 2.25H20.0439ZM16 9.75C11.9959 9.75 8.75 12.9959 8.75 17C8.75 21.0041 11.9959 24.25 16 24.25C20.0041 24.25 23.25 21.0041 23.25 17C23.25 12.9959 20.0041 9.75 16 9.75ZM16 11.25C19.1756 11.25 21.75 13.8244 21.75 17C21.75 20.1756 19.1756 22.75 16 22.75C12.8244 22.75 10.25 20.1756 10.25 17C10.25 13.8244 12.8244 11.25 16 11.25Z"
    fill="currentColor"
  />
</svg>

<svg xmlns="http://www.w3.org/2000/svg" width="32" height="32" fill="none" data-fui-icon="true" viewBox="0 0 32 32"><path fill="currentColor" d="M20.044 2.25a4.75 4.75 0 0 1 3.749 1.834l1.509 1.94c.357.458.905.726 1.486.726a4.96 4.96 0 0 1 4.962 4.962V24.7a5.55 5.55 0 0 1-5.55 5.55H5.8A5.55 5.55 0 0 1 .25 24.7V11.712A4.96 4.96 0 0 1 5.212 6.75c.58 0 1.13-.268 1.486-.727l1.509-1.939a4.75 4.75 0 0 1 3.75-1.834zM16 9.75a7.25 7.25 0 1 0 0 14.5 7.25 7.25 0 0 0 0-14.5m0 1.5a5.75 5.75 0 1 1 0 11.5 5.75 5.75 0 0 1 0-11.5"/></svg>
